; G-Code generated by Simplify3D(R) Version 3.0.0
; déc. 6, 2015 at 5:06:24 
; Settings Summary
;   processName,Process1
;   applyToModels,Sensor-case-bottom_v2_fixed
;   profileName,red1
;   profileVersion,2015-11-09 21:30:01
;   baseProfile,Default
;   printMaterial,PLA
;   printQuality,Medium
;   printExtruders,
;   extruderName,Extruder 1
;   extruderToolheadNumber,0
;   extruderDiameter,0.3
;   extruderAutoWidth,0
;   extruderWidth,0.3
;   extrusionMultiplier,0.9
;   extruderUseRetract,1
;   extruderRetractionDistance,1
;   extruderExtraRestartDistance,0
;   extruderRetractionZLift,0
;   extruderRetractionSpeed,1800
;   extruderUseCoasting,0
;   extruderCoastingDistance,0.2
;   extruderUseWipe,0
;   extruderWipeDistance,5
;   primaryExtruder,0
;   layerHeight,0.2
;   topSolidLayers,4
;   bottomSolidLayers,4
;   perimeterOutlines,2
;   printPerimetersInsideOut,1
;   startPointOption,2
;   startPointOriginX,0
;   startPointOriginY,0
;   startPointOriginZ,300
;   sequentialIslands,0
;   spiralVaseMode,0
;   firstLayerHeightPercentage,90
;   firstLayerWidthPercentage,100
;   firstLayerUnderspeed,0.5
;   useRaft,0
;   raftExtruder,0
;   raftLayers,3
;   raftOffset,3
;   raftSeparationDistance,0.14
;   raftInfill,85
;   disableRaftBaseLayers,0
;   useSkirt,1
;   skirtExtruder,0
;   skirtLayers,1
;   skirtOutlines,2
;   skirtOffset,4
;   usePrimePillar,0
;   primePillarExtruder,999
;   primePillarWidth,12
;   primePillarLocation,7
;   primePillarSpeedMultiplier,1
;   useOozeShield,0
;   oozeShieldExtruder,999
;   oozeShieldOffset,2
;   oozeShieldOutlines,1
;   oozeShieldSidewallShape,1
;   oozeShieldSidewallAngle,30
;   oozeShieldSpeedMultiplier,1
;   infillExtruder,0
;   internalInfillPattern,Full Honeycomb
;   externalInfillPattern,Rectilinear
;   infillPercentage,40
;   outlineOverlapPercentage,15
;   infillExtrusionWidthPercentage,100
;   minInfillLength,5
;   infillLayerInterval,1
;   infillAngles,0,120,-120
;   overlapInfillAngles,0
;   generateSupport,1
;   supportExtruder,0
;   supportInfillPercentage,30
;   supportExtraInflation,0
;   denseSupportLayers,0
;   denseSupportInfillPercentage,70
;   supportLayerInterval,1
;   supportHorizontalPartOffset,0.3
;   supportUpperSeparationLayers,1
;   supportLowerSeparationLayers,1
;   supportType,0
;   supportGridSpacing,1
;   maxOverhangAngle,45
;   supportAngles,0
;   temperatureName,Extruder 1 Temperature,Heated Bed
;   temperatureNumber,0,0
;   temperatureSetpointCount,2,2
;   temperatureSetpointLayers,1,2,1,2
;   temperatureSetpointTemperatures,200,190,70,60
;   temperatureStabilizeAtStartup,1,1
;   temperatureHeatedBed,0,1
;   temperatureRelayBetweenLayers,0,0
;   temperatureRelayBetweenLoops,0,0
;   fanLayers,1,2
;   fanSpeeds,0,100
;   blipFanToFullPower,0
;   adjustSpeedForCooling,1
;   minSpeedLayerTime,15
;   minCoolingSpeedSlowdown,20
;   increaseFanForCooling,0
;   minFanLayerTime,45
;   maxCoolingFanSpeed,100
;   increaseFanForBridging,0
;   bridgingFanSpeed,100
;   use5D,1
;   relativeEdistances,0
;   allowEaxisZeroing,1
;   independentExtruderAxes,0
;   includeM10123,0
;   stickySupport,1
;   applyToolheadOffsets,0
;   gcodeXoffset,0
;   gcodeYoffset,0
;   gcodeZoffset,0
;   overrideMachineDefinition,1
;   machineTypeOverride,0
;   strokeXoverride,200
;   strokeYoverride,200
;   strokeZoverride,180
;   originOffsetXoverride,0
;   originOffsetYoverride,0
;   originOffsetZoverride,0
;   homeXdirOverride,-1
;   homeYdirOverride,-1
;   homeZdirOverride,-1
;   flipXoverride,1
;   flipYoverride,-1
;   flipZoverride,1
;   toolheadOffsets,0,0|0,0|0,0|0,0|0,0|0,0
;   overrideFirmwareConfiguration,1
;   firmwareTypeOverride,RepRap (Marlin/Repetier/Sprinter)
;   GPXconfigOverride,r2
;   baudRateOverride,250000
;   overridePrinterModels,0
;   printerModelsOverride
;   startingGcode,G28 ; home all axes
;   layerChangeGcode,
;   retractionGcode,
;   toolChangeGcode,
;   endingGcode,M104 S0 ; turn off extruder,M140 S0 ; turn off bed,G28,M84 ; disable motors
;   createX3G,0
;   celebration,0
;   celebrationSong,Random Song
;   createMB5G,0
;   postProcessing,
;   defaultSpeed,3600
;   outlineUnderspeed,0.5
;   solidInfillUnderspeed,0.8
;   supportUnderspeed,0.8
;   rapidXYspeed,4800
;   rapidZspeed,1000
;   minBridgingArea,50
;   bridgingExtraInflation,0
;   bridgingExtrusionMultiplier,0.25
;   bridgingSpeedMultiplier,1
;   filamentDiameter,1.75
;   filamentPricePerKg,46
;   filamentDensity,1.25
;   useMinPrintHeight,0
;   minPrintHeight,0
;   useMaxPrintHeight,0
;   maxPrintHeight,0
;   useDiaphragm,0
;   diaphragmLayerInterval,20
;   robustSlicing,0
;   mergeAllIntoSolid,0
;   onlyRetractWhenCrossingOutline,1
;   retractBetweenLayers,1
;   useRetractionMinTravel,0
;   retractionMinTravel,3
;   retractWhileWiping,0
;   onlyWipeOutlines,1
;   avoidCrossingOutline,0
;   maxMovementDetourFactor,3
;   toolChangeRetractionDistance,12
;   toolChangeExtraRestartDistance,-0.5
;   toolChangeRetractionSpeed,600
;   allowThinWallGapFill,1
;   thinWallAllowedOverlapPercentage,10
;   horizontalSizeCompensation,0
G90
M82
M106 S0
M140 S70
M190 S70
M104 S200 T0
M109 S200 T0
G28 ; home all axes
G92 E0
G1 E-1.0000 F1800
G1 Z0.180 F1000
; layer 1, Z = 0.18
T0
; tool H0.200 W0.300
; skirt
G1 X49.522 Y62.798 F4800
G1 E0.0000 F540
G92 E0
G1 X49.747 Y62.625 E0.0064 F1800
G1 X49.760 Y62.616 E0.0067
G1 X50.647 Y62.024 E0.0306
G1 X50.659 Y62.017 E0.0310
G1 X50.900 Y61.878 E0.0372
G1 X50.913 Y61.871 E0.0375
G1 X51.862 Y61.405 E0.0613
G1 X51.875 Y61.399 E0.0616
G1 X52.122 Y61.296 E0.0676
G1 X52.136 Y61.291 E0.0679
G1 X53.140 Y60.948 E0.0918
G1 X53.154 Y60.943 E0.0921
G1 X53.430 Y60.869 E0.0985
G1 X53.444 Y60.866 E0.0988
G1 X54.488 Y60.660 E0.1227
G1 X54.502 Y60.658 E0.1230
G1 X54.771 Y60.622 E0.1291
G1 X54.786 Y60.621 E0.1295
G1 X55.775 Y60.555 E0.1517
G1 X55.783 Y60.555 E0.1519
G1 X55.923 Y60.550 E0.1550
G1 X55.930 Y60.550 E0.1552
G1 X144.068 Y60.550 E2.1340
G1 X144.075 Y60.550 E2.1341
G1 X144.215 Y60.555 E2.1373
G1 X144.223 Y60.555 E2.1374
G1 X145.212 Y60.621 E2.1597
G1 X145.227 Y60.622 E2.1600
G1 X145.496 Y60.658 E2.1661
G1 X145.510 Y60.660 E2.1664
G1 X146.553 Y60.866 E2.1903
G1 X146.567 Y60.869 E2.1906
G1 X146.841 Y60.943 E2.1970
G1 X146.856 Y60.947 E2.1973
G1 X147.862 Y61.290 E2.2212
G1 X147.875 Y61.295 E2.2215
G1 X148.124 Y61.399 E2.2276
G1 X148.138 Y61.405 E2.2279
G1 X149.089 Y61.872 E2.2517
G1 X149.102 Y61.879 E2.2520
G1 X149.344 Y62.019 E2.2583
G1 X149.357 Y62.027 E2.2587
G1 X150.241 Y62.618 E2.2825
G1 X150.253 Y62.626 E2.2829
G1 X150.473 Y62.795 E2.2891
G1 X150.484 Y62.805 E2.2894
G1 X151.281 Y63.504 E2.3132
G1 X151.292 Y63.514 E2.3136
G1 X151.486 Y63.708 E2.3197
G1 X151.495 Y63.719 E2.3200
G1 X152.195 Y64.516 E2.3438
G1 X152.205 Y64.527 E2.3442
G1 X152.374 Y64.747 E2.3504
G1 X152.382 Y64.759 E2.3507
G1 X152.973 Y65.643 E2.3746
G1 X152.981 Y65.656 E2.3749
G1 X153.121 Y65.898 E2.3812
G1 X153.128 Y65.911 E2.3816
G1 X153.596 Y66.865 E2.4054
G1 X153.602 Y66.878 E2.4057
G1 X153.707 Y67.132 E2.4119
G1 X153.713 Y67.146 E2.4122
G1 X154.053 Y68.150 E2.4360
G1 X154.057 Y68.164 E2.4364
G1 X154.128 Y68.427 E2.4425
G1 X154.131 Y68.441 E2.4428
G1 X154.339 Y69.481 E2.4666
G1 X154.341 Y69.496 E2.4669
G1 X154.378 Y69.770 E2.4732
G1 X154.379 Y69.785 E2.4735
G1 X154.444 Y70.764 E2.4955
G1 X154.445 Y70.771 E2.4957
G1 X154.449 Y70.912 E2.4988
G1 X154.449 Y70.919 E2.4990
G1 X154.450 Y129.070 E3.8045
G1 X154.450 Y129.077 E3.8047
G1 X154.445 Y129.217 E3.8078
G1 X154.445 Y129.225 E3.8080
G1 X154.379 Y130.217 E3.8303
G1 X154.378 Y130.231 E3.8307
G1 X154.341 Y130.506 E3.8369
G1 X154.339 Y130.521 E3.8372
G1 X154.131 Y131.561 E3.8610
G1 X154.127 Y131.576 E3.8614
G1 X154.056 Y131.841 E3.8675
G1 X154.052 Y131.855 E3.8679
G1 X153.712 Y132.857 E3.8916
G1 X153.707 Y132.870 E3.8919
G1 X153.602 Y133.123 E3.8981
G1 X153.596 Y133.136 E3.8984
G1 X153.128 Y134.089 E3.9222
G1 X153.121 Y134.102 E3.9226
G1 X152.981 Y134.344 E3.9289
G1 X152.973 Y134.357 E3.9292
G1 X152.382 Y135.241 E3.9531
G1 X152.374 Y135.253 E3.9534
G1 X152.205 Y135.473 E3.9596
G1 X152.195 Y135.484 E3.9599
G1 X151.496 Y136.281 E3.9838
G1 X151.486 Y136.292 E3.9841
G1 X151.292 Y136.486 E3.9902
G1 X151.281 Y136.496 E3.9906
G1 X150.484 Y137.195 E4.0144
G1 X150.473 Y137.205 E4.0147
G1 X150.253 Y137.373 E4.0209
G1 X150.241 Y137.382 E4.0213
G1 X149.359 Y137.972 E4.0451
G1 X149.347 Y137.979 E4.0454
G1 X149.108 Y138.117 E4.0516
G1 X149.095 Y138.124 E4.0519
G1 X148.142 Y138.595 E4.0758
G1 X148.129 Y138.601 E4.0761
G1 X147.870 Y138.709 E4.0824
G1 X147.856 Y138.714 E4.0827
G1 X146.850 Y139.055 E4.1066
G1 X146.836 Y139.059 E4.1069
G1 X146.573 Y139.129 E4.1130
G1 X146.559 Y139.133 E4.1134
G1 X145.516 Y139.341 E4.1372
G1 X145.501 Y139.344 E4.1376
G1 X145.221 Y139.381 E4.1439
G1 X145.206 Y139.382 E4.1442
G1 X144.214 Y139.445 E4.1666
G1 X144.207 Y139.446 E4.1667
G1 X144.072 Y139.450 E4.1697
G1 X144.065 Y139.450 E4.1699
G1 X55.933 Y139.450 E6.1485
G1 X55.926 Y139.450 E6.1487
G1 X55.791 Y139.446 E6.1517
G1 X55.784 Y139.445 E6.1519
G1 X54.792 Y139.382 E6.1742
G1 X54.777 Y139.381 E6.1745
G1 X54.497 Y139.344 E6.1809
G1 X54.482 Y139.341 E6.1812
G1 X53.439 Y139.133 E6.2051
G1 X53.424 Y139.129 E6.2054
G1 X53.159 Y139.058 E6.2116
G1 X53.145 Y139.054 E6.2119
G1 X52.141 Y138.713 E6.2357
G1 X52.127 Y138.708 E6.2361
G1 X51.870 Y138.601 E6.2423
G1 X51.857 Y138.595 E6.2426
G1 X50.906 Y138.125 E6.2664
G1 X50.893 Y138.118 E6.2668
G1 X50.657 Y137.982 E6.2729
G1 X50.645 Y137.974 E6.2732
G1 X49.760 Y137.384 E6.2971
G1 X49.747 Y137.375 E6.2974
G1 X49.522 Y137.202 E6.3038
G1 X49.511 Y137.193 E6.3042
G1 X48.715 Y136.492 E6.3280
G1 X48.704 Y136.482 E6.3283
G1 X48.513 Y136.290 E6.3344
G1 X48.503 Y136.280 E6.3347
G1 X47.805 Y135.484 E6.3585
G1 X47.795 Y135.472 E6.3588
G1 X47.626 Y135.253 E6.3650
G1 X47.618 Y135.241 E6.3653
G1 X47.028 Y134.359 E6.3892
G1 X47.021 Y134.347 E6.3895
G1 X46.883 Y134.108 E6.3957
G1 X46.876 Y134.095 E6.3960
G1 X46.405 Y133.143 E6.4198
G1 X46.399 Y133.130 E6.4202
G1 X46.292 Y132.873 E6.4264
G1 X46.287 Y132.859 E6.4268
G1 X45.946 Y131.855 E6.4506
G1 X45.942 Y131.841 E6.4509
G1 X45.871 Y131.576 E6.4571
G1 X45.867 Y131.561 E6.4574
G1 X45.659 Y130.518 E6.4813
G1 X45.656 Y130.503 E6.4816
G1 X45.619 Y130.223 E6.4879
G1 X45.618 Y130.208 E6.4883
G1 X45.555 Y129.227 E6.5104
G1 X45.555 Y129.220 E6.5105
G1 X45.551 Y129.085 E6.5135
G1 X45.551 Y129.078 E6.5137
G1 X45.550 Y70.933 E7.8191
G1 X45.550 Y70.925 E7.8193
G1 X45.554 Y70.791 E7.8223
G1 X45.555 Y70.783 E7.8225
G1 X45.618 Y69.793 E7.8447
G1 X45.620 Y69.778 E7.8451
G1 X45.656 Y69.498 E7.8514
G1 X45.659 Y69.484 E7.8517
G1 X45.867 Y68.441 E7.8756
G1 X45.870 Y68.427 E7.8759
G1 X45.941 Y68.164 E7.8821
G1 X45.945 Y68.150 E7.8824
G1 X46.286 Y67.144 E7.9062
G1 X46.291 Y67.130 E7.9066
G1 X46.399 Y66.871 E7.9128
G1 X46.405 Y66.858 E7.9132
G1 X46.876 Y65.905 E7.9370
G1 X46.883 Y65.892 E7.9374
G1 X47.021 Y65.653 E7.9436
G1 X47.028 Y65.641 E7.9439
G1 X47.618 Y64.759 E7.9677
G1 X47.626 Y64.747 E7.9680
G1 X47.795 Y64.528 E7.9743
G1 X47.805 Y64.516 E7.9746
G1 X48.503 Y63.720 E7.9984
G1 X48.513 Y63.710 E7.9987
G1 X48.704 Y63.518 E8.0048
G1 X48.715 Y63.508 E8.0051
G1 X49.511 Y62.807 E8.0289
G1 X49.522 Y62.798 E8.0292
G1 X49.709 Y63.032 F4800
G92 E0
G1 X49.926 Y62.866 E0.0061 F1800
G1 X49.930 Y62.863 E0.0063
G1 X50.809 Y62.277 E0.0300
G1 X50.813 Y62.274 E0.0301
G1 X51.045 Y62.141 E0.0361
G1 X51.050 Y62.138 E0.0362
G1 X51.990 Y61.676 E0.0597
G1 X51.994 Y61.674 E0.0598
G1 X52.233 Y61.575 E0.0656
G1 X52.237 Y61.574 E0.0657
G1 X53.232 Y61.233 E0.0893
G1 X53.237 Y61.232 E0.0895
G1 X53.502 Y61.160 E0.0956
G1 X53.507 Y61.159 E0.0957
G1 X54.541 Y60.955 E0.1194
G1 X54.546 Y60.954 E0.1195
G1 X54.806 Y60.920 E0.1254
G1 X54.811 Y60.920 E0.1255
G1 X55.793 Y60.855 E0.1476
G1 X55.795 Y60.855 E0.1477
G1 X55.930 Y60.850 E0.1507
G1 X55.933 Y60.850 E0.1507
G1 X144.065 Y60.850 E2.1294
G1 X144.068 Y60.850 E2.1294
G1 X144.203 Y60.855 E2.1325
G1 X144.205 Y60.855 E2.1325
G1 X145.187 Y60.920 E2.1546
G1 X145.192 Y60.920 E2.1547
G1 X145.452 Y60.954 E2.1606
G1 X145.457 Y60.955 E2.1607
G1 X146.490 Y61.159 E2.1843
G1 X146.495 Y61.160 E2.1845
G1 X146.759 Y61.231 E2.1906
G1 X146.764 Y61.232 E2.1907
G1 X147.760 Y61.573 E2.2144
G1 X147.765 Y61.574 E2.2145
G1 X148.005 Y61.674 E2.2203
G1 X148.010 Y61.676 E2.2204
G1 X148.952 Y62.139 E2.2440
G1 X148.956 Y62.141 E2.2441
G1 X149.190 Y62.276 E2.2502
G1 X149.195 Y62.279 E2.2503
G1 X150.070 Y62.865 E2.2739
G1 X150.074 Y62.867 E2.2740
G1 X150.286 Y63.030 E2.2800
G1 X150.290 Y63.033 E2.2801
G1 X151.079 Y63.727 E2.3037
G1 X151.083 Y63.730 E2.3038
G1 X151.270 Y63.917 E2.3098
G1 X151.273 Y63.921 E2.3099
G1 X151.967 Y64.710 E2.3335
G1 X151.970 Y64.714 E2.3336
G1 X152.133 Y64.926 E2.3396
G1 X152.136 Y64.930 E2.3397
G1 X152.721 Y65.805 E2.3634
G1 X152.724 Y65.810 E2.3635
G1 X152.859 Y66.044 E2.3695
G1 X152.861 Y66.048 E2.3696
G1 X153.325 Y66.993 E2.3933
G1 X153.327 Y66.997 E2.3934
G1 X153.428 Y67.242 E2.3993
G1 X153.430 Y67.247 E2.3994
G1 X153.767 Y68.241 E2.4230
G1 X153.768 Y68.246 E2.4231
G1 X153.837 Y68.500 E2.4290
G1 X153.838 Y68.505 E2.4291
G1 X154.044 Y69.535 E2.4527
G1 X154.044 Y69.540 E2.4528
G1 X154.079 Y69.805 E2.4588
G1 X154.080 Y69.809 E2.4589
G1 X154.145 Y70.781 E2.4808
G1 X154.145 Y70.784 E2.4809
G1 X154.149 Y70.919 E2.4839
G1 X154.149 Y70.922 E2.4840
G1 X154.150 Y129.067 E3.7894
G1 X154.150 Y129.070 E3.7894
G1 X154.145 Y129.205 E3.7925
G1 X154.145 Y129.207 E3.7925
G1 X154.080 Y130.192 E3.8147
G1 X154.080 Y130.197 E3.8148
G1 X154.044 Y130.462 E3.8208
G1 X154.044 Y130.467 E3.8209
G1 X153.837 Y131.498 E3.8445
G1 X153.836 Y131.503 E3.8446
G1 X153.768 Y131.758 E3.8506
G1 X153.766 Y131.763 E3.8507
G1 X153.429 Y132.755 E3.8742
G1 X153.427 Y132.760 E3.8743
G1 X153.327 Y133.004 E3.8802
G1 X153.325 Y133.008 E3.8803
G1 X152.861 Y133.952 E3.9039
G1 X152.859 Y133.956 E3.9040
G1 X152.724 Y134.190 E3.9101
G1 X152.721 Y134.195 E3.9102
G1 X152.135 Y135.070 E3.9339
G1 X152.133 Y135.074 E3.9340
G1 X151.970 Y135.286 E3.9400
G1 X151.967 Y135.290 E3.9401
G1 X151.273 Y136.079 E3.9637
G1 X151.270 Y136.083 E3.9638
G1 X151.083 Y136.270 E3.9697
G1 X151.079 Y136.273 E3.9698
G1 X150.290 Y136.967 E3.9934
G1 X150.286 Y136.970 E3.9935
G1 X150.074 Y137.133 E3.9995
G1 X150.070 Y137.135 E3.9997
G1 X149.196 Y137.720 E4.0232
G1 X149.192 Y137.722 E4.0234
G1 X148.962 Y137.855 E4.0293
G1 X148.958 Y137.857 E4.0294
G1 X148.014 Y138.324 E4.0531
G1 X148.009 Y138.326 E4.0532
G1 X147.760 Y138.430 E4.0592
G1 X147.755 Y138.431 E4.0594
G1 X146.759 Y138.769 E4.0830
G1 X146.754 Y138.770 E4.0831
G1 X146.500 Y138.838 E4.0890
G1 X146.495 Y138.840 E4.0891
G1 X145.462 Y139.046 E4.1128
G1 X145.457 Y139.047 E4.1129
G1 X145.187 Y139.082 E4.1190
G1 X145.182 Y139.083 E4.1191
G1 X144.197 Y139.146 E4.1413
G1 X144.195 Y139.146 E4.1413
G1 X144.065 Y139.150 E4.1442
G1 X144.063 Y139.150 E4.1443
G1 X55.935 Y139.150 E6.1228
G1 X55.933 Y139.150 E6.1228
G1 X55.803 Y139.146 E6.1258
G1 X55.801 Y139.146 E6.1258
G1 X54.816 Y139.083 E6.1480
G1 X54.811 Y139.082 E6.1481
G1 X54.541 Y139.047 E6.1542
G1 X54.536 Y139.046 E6.1543
G1 X53.502 Y138.839 E6.1780
G1 X53.497 Y138.838 E6.1781
G1 X53.242 Y138.770 E6.1840
G1 X53.237 Y138.768 E6.1841
G1 X52.242 Y138.430 E6.2077
G1 X52.238 Y138.429 E6.2078
G1 X51.990 Y138.326 E6.2139
G1 X51.985 Y138.324 E6.2140
G1 X51.043 Y137.858 E6.2376
G1 X51.039 Y137.856 E6.2377
G1 X50.811 Y137.724 E6.2436
G1 X50.807 Y137.722 E6.2437
G1 X49.930 Y137.137 E6.2673
G1 X49.926 Y137.134 E6.2675
G1 X49.709 Y136.968 E6.2736
G1 X49.705 Y136.964 E6.2737
G1 X48.917 Y136.270 E6.2973
G1 X48.913 Y136.266 E6.2974
